X:75
T:Reel 75
M:4/4
K:Dmix
L:1/8
G| (3FED FG A2AB|cAdB cAGc|Addc d2de|fdec dcAG|FEFG A2AB|cAdB cAGc|Addc A2AG|EFGE FDD|g|fdeg fdec|Addc Addg|fdeg fdec|AdcA G2FG|Addc Adde|fdeg fdec|dfaf gecd|efge edd|
